src/actions/24/draw-halfcircle2.svg

<svg viewBox="0 0 24 24" xmlns="http://www.w3.org/2000/svg">
 <defs>
  <style type="text/css">.ColorScheme-Text {
        color:#2e3440;
      }</style>
 </defs>
 <path class="ColorScheme-Text" d="m11 4v16h1c4.432 0 8-3.568 8-8s-3.568-8-8-8h-1zm1 1c3.878 0 7 3.122 7 7s-3.122 7-7 7v-14z" fill="currentColor"/>
</svg>

<svg xmlns="http://www.w3.org/2000/svg" viewBox="0 0 24 24">
  <defs id="defs3051">
    <style type="text/css" id="current-color-scheme">
      .ColorScheme-Text {
        color:#2e3440;
      }
      </style>
  </defs>
 <path style="fill:currentColor;fill-opacity:1;stroke:none" 
     d="M 11 4 L 11 20 L 12 20 C 16.432 20 20 16.432 20 12 C 20 7.568 16.432 4 12 4 L 11 4 z M 12 5 C 15.878 5 19 8.122 19 12 C 19 15.878 15.878 19 12 19 L 12 5 z "
     class="ColorScheme-Text"
     />
</svg>
